material/.icons/material/microphone-variant.svg

<svg xmlns="http://www.w3.org/2000/svg" viewBox="0 0 24 24"><path d="M9 3a4 4 0 014 4H5a4 4 0 014-4m2.84 6.82L11 18h-1v1a2 2 0 002 2 2 2 0 002-2v-5a4 4 0 014-4h2l-1 1 1 1h-2a2 2 0 00-2 2v5a4 4 0 01-4 4 4 4 0 01-4-4v-1H7l-.84-8.18C5.67 9.32 5.31 8.7 5.13 8h7.74c-.18.7-.54 1.32-1.03 1.82M9 11a1 1 0 00-1 1 1 1 0 001 1 1 1 0 001-1 1 1 0 00-1-1z"/></svg>

<?xml version="1.0" encoding="UTF-8"?><!DOCTYPE svg PUBLIC "-//W3C//DTD SVG 1.1//EN" "http://www.w3.org/Graphics/SVG/1.1/DTD/svg11.dtd"><svg xmlns="http://www.w3.org/2000/svg" xmlns:xlink="http://www.w3.org/1999/xlink" version="1.1" id="mdi-microphone-variant" width="24" height="24" viewBox="0 0 24 24"><path d="M9,3A4,4 0 0,1 13,7H5A4,4 0 0,1 9,3M11.84,9.82L11,18H10V19A2,2 0 0,0 12,21A2,2 0 0,0 14,19V14A4,4 0 0,1 18,10H20L19,11L20,12H18A2,2 0 0,0 16,14V19A4,4 0 0,1 12,23A4,4 0 0,1 8,19V18H7L6.16,9.82C5.67,9.32 5.31,8.7 5.13,8H12.87C12.69,8.7 12.33,9.32 11.84,9.82M9,11A1,1 0 0,0 8,12A1,1 0 0,0 9,13A1,1 0 0,0 10,12A1,1 0 0,0 9,11Z" /></svg>
